X: 2047
T: Zâhirî Hâle Bakıp...
C: Hacı Ârif Bey
O: Turkey
F: http://compmusic.upf.edu/node/140
N: mahur--sarki--curcuna--zahiri_hale--haci_arif_bey
N: makam= mahur
N: form= sarki
N: usul= curcuna = 10/8
M: 10/8
L: 1/16
K: C ^9/8f   
Q: 1/4=198
%%MIDI tuningsystem comma53
d4 d2g4d4g4z2  | c4 c2e4c4e4z2  | d4 g2=f2 e2d2 c2B2 A2G2  | 
w:  ARANAĞME  |   |   | 
A2B2 c2d2 e2f3ag4z2  | d4 d2g4d4g4z2  | \
w:   |   | 
c4 c2e4c4e4z2  | 
w:   | 
d4 g2=f2 e2d2 c2B2 A2G2  | A2B2 c2B2 A2G2 F2G4z2  | \
w:   |   | 
g6g4g4g4a2  | 
w:  Zâ hi rî  hâ  | 
b4 a2a2 g2g8-g2  | c'6c'2 b2d'2 c'2b4a2  | \
w:  le  *  ba *  kıp   |  et me  *  dâ *  hil   | 
a8 g2f2 g2a4g2  | g4 f2e2 d2d2 c2B2 A2G2  | 
w:  bir  *  fer  |  di   SAZ  | 
g6g4g4g4a2  | b4 a2a2 g2g8-g2  | c'6c'2 b2d'2 c'2b4a2  | \
w:  Zâ hi rî  hâ  |  le  *  ba *  kıp   |  et me  *  dâ *  hil   | 
a8 g2f2 g2a4g2  | 
w:  bir  *  fer  | 
g6d4e2 f2g4z2  | d6g4g2 f2g4d2  | d4 e2=f4f2 e2e4d2  | \
w:  di   SAZ  |  Çe ki lir   |  çi *  le  de *  ğil   | 
c4 d2e4e2 d2g4=f2  | 
w:  çî *  le  i  *  germ_  | 
=f4 e2e2 d2d2 c2c4_1/4B2  | _1/4B8-_1/4B2c2 B^AB4z2  | \
w:  ü  *  ser  |  di   SAZ  | 
c4 _1/4B2B2 A2A8-A2  | 
w:  Çe *  ki *  lir   | 
d6e4e2 a2e4d2  | d4 c2c4c4c4B2  | B6B2 A2A2 G2B2 A2G2  | \
w:  çil le  de *  ğil   |  çil *  le  i  germ_  |  ü  ser  | 
G4 e2d2 c2B2 c2d4z2  | 
w:  di   SAZ  | 
c6d4d8-d2  | d4 _3/4e2^f2 g2f2 e2d4z2  | \
w:  Ken di  hâ  |  lin *  ce  *  o *  lur   | 
d4 c2c2 _1/4B2B4g6  | g^fga f4 _3/4e2^3/4f2 e2e4d2  | 
w:  her  *  ki *  şi nin   |  bir  *  *  *  *  *  der  | 
d4 e2d2 c2B2 A2G4z2  | c6d4d8-d2  | d4 _3/4e2^f2 g2f2 e2d4z2  | \
w:  di   SAZ  |  Ken di  hâ  |  lin *  ce  *  o *  lur   | 
d4 c2c2 _1/4B2B4g6  | 
w:  her  *  ki *  şi nin   | 
g^fga f4 _3/4e2^3/4f2 e2e4d2  | d8-d2e2 f2g4z2  | \
w:  bir  *  *  *  *  *  der  |  di   SAZ  | 
d6g4g2 f2g6  | 
w:  Tü ke nir   | 
^f4 _3/4e2e2 f2e2 d2d4z2  | d4 c2c2 _1/4B2B4g6  | \
w:  mi  *  fe *  le *  ğin   |  mih *  net_ *  i  germ_  | 
g^fga ^3/4f4 _3/4e2g2 f2e4d2  | 
w:  ü  *  *  *  *  *  ser  | 
d4 _3/4e2d2 c2B2 c2d4z2  | d6g4g2 f2g4d2  | \
w:  di   SAZ  |  Çe ki lir   | 
d4 e2=f4f2 e2e4d2  | 
w:  çi *  le  de *  ğil   | 
c4 d2e4e2 d2g4=f2  | =f4 e2e2 d2d2 c2c4_1/4B2  | \
w:  çî *  le  i  *  germ_  |  ü  *  ser  | 
_1/4B8-_1/4B2c2 B^AB4z2  | 
w:  di   SAZ  | 
c4 _1/4B2B2 A2A8-A2  | d6e4e2 a2e4d2  | \
w:  Çe *  ki *  lir   |  çil le  de *  ğil   | 
d4 c2c4c4c4B2  | B6B2 A2A2 G2B2 A2G2  | 
w:  çil *  le  i  germ_  |  ü  ser  | 
G4 e2d2 c2_1/4B2 A2G4z2  | |


